super_admin_panel/assets/icons/menu_Hospital.svg

<?xml version="1.0" encoding="utf-8"?><!-- Uploaded to: SVG Repo, www.svgrepo.com, Generator: SVG Repo Mixer Tools -->
<svg width="800px" height="800px" viewBox="0 0 24 24" fill="none" xmlns="http://www.w3.org/2000/svg">
<path fill-rule="evenodd" clip-rule="evenodd" d="M21.5 8.5C21.5 7.09554 21.5 6.39331 21.1629 5.88886C21.017 5.67048 20.8295 5.48298 20.6111 5.33706C20.1699 5.04224 19.5774 5.00529 18.496 5.00066C18.5001 5.29206 18.5 5.59655 18.5 5.91051L18.5 6V7.25H19.5C19.9142 7.25 20.25 7.58579 20.25 8C20.25 8.41421 19.9142 8.75 19.5 8.75H18.5V10.25H19.5C19.9142 10.25 20.25 10.5858 20.25 11C20.25 11.4142 19.9142 11.75 19.5 11.75H18.5V13.25H19.5C19.9142 13.25 20.25 13.5858 20.25 14C20.25 14.4142 19.9142 14.75 19.5 14.75H18.5V21.25H17V6C17 4.11438 17 3.17157 16.4142 2.58579C15.8284 2 14.8856 2 13 2H11C9.11438 2 8.17157 2 7.58579 2.58579C7 3.17157 7 4.11438 7 6V21.25H5.5V14.75H4.5C4.08579 14.75 3.75 14.4142 3.75 14C3.75 13.5858 4.08579 13.25 4.5 13.25H5.5V11.75H4.5C4.08579 11.75 3.75 11.4142 3.75 11C3.75 10.5858 4.08579 10.25 4.5 10.25H5.5V8.75H4.5C4.08579 8.75 3.75 8.41421 3.75 8C3.75 7.58579 4.08579 7.25 4.5 7.25H5.5V6L5.49999 5.9105C5.49996 5.59655 5.49992 5.29206 5.50403 5.00066C4.42262 5.00529 3.83008 5.04224 3.38886 5.33706C3.17048 5.48298 2.98298 5.67048 2.83706 5.88886C2.5 6.39331 2.5 7.09554 2.5 8.5V21.25H2C1.58579 21.25 1.25 21.5858 1.25 22C1.25 22.4142 1.58579 22.75 2 22.75H22C22.4142 22.75 22.75 22.4142 22.75 22C22.75 21.5858 22.4142 21.25 22 21.25H21.5V8.5ZM12 4.25C12.4142 4.25 12.75 4.58579 12.75 5V6.25H14C14.4142 6.25 14.75 6.58579 14.75 7C14.75 7.41421 14.4142 7.75 14 7.75H12.75V9C12.75 9.41421 12.4142 9.75 12 9.75C11.5858 9.75 11.25 9.41421 11.25 9V7.75H10C9.58579 7.75 9.25 7.41421 9.25 7C9.25 6.58579 9.58579 6.25 10 6.25H11.25V5C11.25 4.58579 11.5858 4.25 12 4.25ZM9.25 12C9.25 11.5858 9.58579 11.25 10 11.25H14C14.4142 11.25 14.75 11.5858 14.75 12C14.75 12.4142 14.4142 12.75 14 12.75H10C9.58579 12.75 9.25 12.4142 9.25 12ZM9.25 15C9.25 14.5858 9.58579 14.25 10 14.25H14C14.4142 14.25 14.75 14.5858 14.75 15C14.75 15.4142 14.4142 15.75 14 15.75H10C9.58579 15.75 9.25 15.4142 9.25 15ZM12 18.25C12.4142 18.25 12.75 18.5858 12.75 19V21.25H11.25V19C11.25 18.5858 11.5858 18.25 12 18.25Z" fill="#1C274C"/>
</svg>

<svg xmlns="http://www.w3.org/2000/svg" width="800" height="800" fill="none" viewBox="0 0 24 24"><path fill="#1C274C" fill-rule="evenodd" d="M21.5 8.5c0-1.404 0-2.107-.337-2.611a2 2 0 0 0-.552-.552c-.441-.295-1.034-.332-2.115-.336.004.291.004.596.004.91V7.25h1a.75.75 0 0 1 0 1.5h-1v1.5h1a.75.75 0 0 1 0 1.5h-1v1.5h1a.75.75 0 0 1 0 1.5h-1v6.5H17V6c0-1.886 0-2.828-.586-3.414C15.828 2 14.886 2 13 2h-2c-1.886 0-2.828 0-3.414.586C7 3.172 7 4.114 7 6v15.25H5.5v-6.5h-1a.75.75 0 0 1 0-1.5h1v-1.5h-1a.75.75 0 0 1 0-1.5h1v-1.5h-1a.75.75 0 0 1 0-1.5h1V5.91c0-.313 0-.618.004-.91-1.081.005-1.674.042-2.115.337a2 2 0 0 0-.552.552C2.5 6.393 2.5 7.096 2.5 8.5v12.75H2a.75.75 0 0 0 0 1.5h20a.75.75 0 0 0 0-1.5h-.5V8.5ZM12 4.25a.75.75 0 0 1 .75.75v1.25H14a.75.75 0 0 1 0 1.5h-1.25V9a.75.75 0 0 1-1.5 0V7.75H10a.75.75 0 0 1 0-1.5h1.25V5a.75.75 0 0 1 .75-.75ZM9.25 12a.75.75 0 0 1 .75-.75h4a.75.75 0 0 1 0 1.5h-4a.75.75 0 0 1-.75-.75Zm0 3a.75.75 0 0 1 .75-.75h4a.75.75 0 0 1 0 1.5h-4a.75.75 0 0 1-.75-.75ZM12 18.25a.75.75 0 0 1 .75.75v2.25h-1.5V19a.75.75 0 0 1 .75-.75Z" clip-rule="evenodd"/></svg>
